Papirus/48x48/apps/polari.svg

<!-- Created with Inkscape (http://www.inkscape.org/) -->
<svg width="48" height="48" version="1.1" viewBox="0 0 48 48" xmlns="http://www.w3.org/2000/svg">
 <g>
  <path d="m22 17c-2.215998 0-4 1.784002-4 4v14c0 2.215998 1.784002 4 4 4h12l6 6v-6c2.215998 0 4-1.784002 4-4v-14c0-2.215998-1.784002-4-4-4z" style="opacity:.19"/>
  <path d="m22 16c-2.215998 0-4 1.784002-4 4v14c0 2.215998 1.784002 4 4 4h12l6 6v-6c2.215998 0 4-1.784002 4-4v-14c0-2.215998-1.784002-4-4-4z" style="fill:#f4f4f4"/>
  <path d="m22 16c-2.215996 0-4 1.784004-4 4v1c0-2.215996 1.784004-4 4-4h18c2.215996 0 4 1.784004 4 4v-1c0-2.215996-1.784004-4-4-4z" style="fill:#ffffff;opacity:.2"/>
  <path d="m8 5c-2.2159978 0-4 1.7840022-4 4v14c0 2.215998 1.7840022 4 4 4v6l6-6h12c2.215998 0 4-1.784002 4-4v-14c0-2.2159978-1.784002-4-4-4z" style="opacity:.2"/>
  <path d="m8 4c-2.2159978 0-4 1.7840022-4 4v14c0 2.215998 1.7840022 4 4 4v6l6-6h12c2.215998 0 4-1.784002 4-4v-14c0-2.2159978-1.784002-4-4-4z" style="fill:#33d17a"/>
  <path d="m13 9v3h-3v2h3v4h-3v2h3v3h2v-3h4v3h2v-3h3v-2h-3v-4h3v-2h-3v-3h-2v3h-4v-3zm2 5h4v4h-4z" style="opacity:.2"/>
  <path d="m13 8v3h-3v2h3v4h-3v2h3v3h2v-3h4v3h2v-3h3v-2h-3v-4h3v-2h-3v-3h-2v3h-4v-3zm2 5h4v4h-4z" style="fill:#ffffff"/>
  <path d="m8 4c-2.2159956 0-4 1.7840044-4 4v1c0-2.2159956 1.7840044-4 4-4h18c2.215996 0 4 1.7840044 4 4v-1c0-2.2159956-1.784004-4-4-4z" style="fill:#ffffff;opacity:.2"/>
 </g>
</svg>

<svg xmlns="http://www.w3.org/2000/svg" width="48" height="48" version="1.1">
 <path style="opacity:0.2" d="M 22,17 C 19.784,17 18,18.784 18,21 V 35 C 18,37.216 19.784,39 22,39 H 34 L 40,45 V 39 C 42.216,39 44,37.216 44,35 V 21 C 44,18.784 42.216,17 40,17 Z"/>
 <path style="fill:#dfdfdf" d="M 22,16 C 19.784,16 18,17.784 18,20 V 34 C 18,36.216 19.784,38 22,38 H 34 L 40,44 V 38 C 42.216,38 44,36.216 44,34 V 20 C 44,17.784 42.216,16 40,16 Z"/>
 <path style="opacity:0.2;fill:#ffffff" d="M 22,16 C 19.784,16 18,17.784 18,20 V 21 C 18,18.784 19.784,17 22,17 H 40 C 42.216,17 44,18.784 44,21 V 20 C 44,17.784 42.216,16 40,16 Z"/>
 <path style="opacity:0.2" d="M 8,5 C 5.784,5 4,6.784 4,9 V 23 C 4,25.216 5.784,27 8,27 V 33 L 14,27 H 26 C 28.216,27 30,25.216 30,23 V 9 C 30,6.784 28.216,5 26,5 Z"/>
 <path style="fill:#33d17a" d="M 8,4 C 5.784,4 4,5.784 4,8 V 22 C 4,24.216 5.784,26 8,26 V 32 L 14,26 H 26 C 28.216,26 30,24.216 30,22 V 8 C 30,5.784 28.216,4 26,4 Z"/>
 <path style="opacity:0.2" d="M 13,9 V 12 H 10 V 14 H 13 V 18 H 10 V 20 H 13 V 23 H 15 V 20 H 19 V 23 H 21 V 20 H 24 V 18 H 21 V 14 H 24 V 12 H 21 V 9 H 19 V 12 H 15 V 9 Z M 15,14 H 19 V 18 H 15 Z"/>
 <path style="fill:#ffffff" d="M 13,8 V 11 H 10 V 13 H 13 V 17 H 10 V 19 H 13 V 22 H 15 V 19 H 19 V 22 H 21 V 19 H 24 V 17 H 21 V 13 H 24 V 11 H 21 V 8 H 19 V 11 H 15 V 8 Z M 15,13 H 19 V 17 H 15 Z"/>
 <path style="opacity:0.2;fill:#ffffff" d="M 8,4 C 5.784,4 4,5.784 4,8 V 9 C 4,6.784 5.784,5 8,5 H 26 C 28.216,5 30,6.784 30,9 V 8 C 30,5.784 28.216,4 26,4 Z"/>
</svg>
